X:2288
L:1/8
M:6/8
K:G
 gag gdB | ded d3 | gag gdB | Aaa a3 | gag gdB | ded def | gfe def | gag g3 || GBd dBG | FAc cAF | 
 GBd dBG | Bdd d3 | GBd dBG | FGA ABc | BAG AGF | GAG G3 || gdB gdB | ded d3 | gdB gdB | Aaa a3 | 
 gdB gdB | ded def | gfe def | gag g3 ||

